img/form/tag4.svg

<svg width="18" height="19" viewBox="0 0 18 19" fill="none" xmlns="http://www.w3.org/2000/svg">
<path fill-rule="evenodd" clip-rule="evenodd" d="M7.92102 1.03474C4.54605 1.4196 1.53727 3.8627 0.461945 7.09144C0.103153 8.16873 -0.0300525 9.09817 0.00557319 10.2757C0.0573001 11.9855 0.529182 13.479 1.47692 14.9323L1.77 15.3817L1.67728 15.5887C1.41048 16.1845 1.7181 16.9454 2.33544 17.2166C2.63004 17.3461 3.07259 17.3483 3.31623 17.2216L3.48992 17.1312L4.0265 17.4862C6.3589 19.0289 9.22713 19.408 11.8734 18.5234C14.184 17.7509 16.1402 15.9951 17.1759 13.7639C17.9699 12.0534 18.2 10.065 17.8234 8.16882C17.5083 6.58236 16.6439 4.92976 15.5306 3.78487C15.3001 3.54786 15.2565 3.52077 15.105 3.52077C14.9382 3.52077 14.9056 3.55132 12.3569 6.09313L9.77749 8.66552L9.58732 8.57586C9.43535 8.50419 9.31655 8.48615 8.99567 8.48598C8.64858 8.48577 8.56157 8.50103 8.35348 8.59855C8.04637 8.74247 7.75219 9.03661 7.60825 9.34367C7.5108 9.55157 7.49542 9.63904 7.49542 9.98578C7.49542 10.3325 7.5108 10.42 7.60825 10.6279C7.75219 10.935 8.04637 11.2291 8.35348 11.373C8.5614 11.4704 8.64888 11.4858 8.99567 11.4858C9.34246 11.4858 9.42994 11.4704 9.63786 11.373C9.94497 11.2291 10.2391 10.935 10.3831 10.6279C10.4806 10.42 10.4959 10.3326 10.4959 9.98578C10.4959 9.66494 10.4777 9.54515 10.4055 9.38897L10.3152 9.19358L10.9468 8.565L11.5785 7.93641L11.6819 8.06318C11.8319 8.24712 12.109 8.8255 12.1879 9.11955C12.2827 9.47293 12.3156 10.2073 12.2517 10.5457L12.2 10.8199L11.937 10.841C11.0947 10.9086 10.5449 11.6896 10.8033 12.4513L10.8871 12.6985L10.6989 12.8178C10.2475 13.104 9.58263 13.2819 8.96575 13.2814C7.16477 13.2799 5.69934 11.8014 5.69934 9.98578C5.69934 8.37937 6.85001 7.00803 8.43022 6.73105C8.78935 6.66813 9.51391 6.69661 9.81975 6.78573C10.4641 6.97347 10.4213 6.96831 10.5479 6.87379C10.8384 6.65694 10.7488 6.35921 10.3442 6.19665C9.71769 5.94502 8.63358 5.90015 7.93915 6.0971C6.56218 6.48766 5.50292 7.55359 5.0992 8.95497C5.01662 9.24171 5.0031 9.38652 5.0031 9.98578C5.0031 10.5849 5.01671 10.7306 5.09958 11.021C5.5 12.4241 6.59417 13.5128 7.97305 13.88C8.4669 14.0115 9.28397 14.0316 9.79904 13.925C10.2779 13.826 10.7476 13.6377 11.1301 13.3917L11.4095 13.2119L11.65 13.2934C12.0736 13.4368 12.5425 13.3171 12.8804 12.9792C13.1326 12.727 13.2392 12.4729 13.2412 12.1197C13.2431 11.7892 13.1869 11.6174 12.9857 11.3372L12.8487 11.1464L12.9159 10.9147C12.9653 10.7446 12.9833 10.4976 12.9835 9.98578C12.9838 9.39628 12.9694 9.23635 12.8905 8.95053C12.7774 8.54058 12.4828 7.92965 12.2566 7.63543L12.0901 7.41892L12.7198 6.79033L13.3496 6.16171L13.4553 6.28847C13.6836 6.56211 14.1128 7.2365 14.2493 7.53626C14.6438 8.40202 14.7624 8.96706 14.7634 9.98578C14.7645 11.05 14.6327 11.6437 14.196 12.5422C13.427 14.1241 11.9447 15.2753 10.1683 15.6703C9.69424 15.7757 8.64034 15.7997 8.11771 15.7169C7.30216 15.5878 6.44959 15.2523 5.7416 14.782C5.24327 14.451 4.49403 13.682 4.14411 13.1425C2.97151 11.3345 2.89269 9.03804 3.93889 7.16505C4.08706 6.89986 4.12184 6.8628 4.19685 6.89039C4.24456 6.90793 4.43575 6.92196 4.6217 6.92158C4.91566 6.92099 4.9892 6.90468 5.18516 6.79676C5.45284 6.64933 5.59154 6.49522 5.73252 6.18862C5.84738 5.93881 5.87244 5.54052 5.78712 5.32193C5.72681 5.16745 5.73286 5.16271 6.4389 4.8106C7.36534 4.34859 8.1636 4.17391 9.18584 4.2094C10.1084 4.24147 10.8698 4.43783 11.6781 4.85218C11.927 4.97979 12.1843 5.08421 12.2498 5.08421C12.4228 5.08421 12.6042 4.85987 12.5699 4.68845C12.5311 4.49458 12.4467 4.42794 11.8942 4.15527C10.9811 3.70471 10.2641 3.5261 9.2281 3.49119C7.91887 3.44712 6.82081 3.72013 5.71625 4.36439L5.2827 4.61729L5.07997 4.52762C4.49014 4.26674 3.71703 4.5681 3.44487 5.16495C3.31538 5.44887 3.31973 5.92601 3.45446 6.21398L3.55504 6.42901L3.46828 6.55088C3.31099 6.77174 2.95376 7.52616 2.82774 7.90363C2.5754 8.65931 2.51184 9.07962 2.51285 9.98578C2.51365 10.6782 2.52895 10.8806 2.60887 11.2534C2.89299 12.5795 3.45805 13.6213 4.40887 14.572C5.35669 15.5197 6.38675 16.0813 7.71348 16.3738C8.06315 16.4509 8.26718 16.4657 8.99567 16.4672C9.73772 16.4687 9.9238 16.4555 10.2926 16.3751C12.2964 15.9383 13.9323 14.6773 14.8265 12.8802C15.3008 11.9271 15.4594 11.2818 15.4912 10.1759C15.5156 9.32462 15.4422 8.72891 15.2282 8.04205C15.0102 7.34248 14.4954 6.3955 14.0434 5.86254L13.8614 5.64789L14.4916 5.01875C14.875 4.63613 15.1362 4.40568 15.1584 4.43056C17.6869 7.26718 17.9879 11.4289 15.8919 14.5704C14.5198 16.627 12.3549 17.9451 9.88462 18.2281C9.013 18.328 7.8425 18.242 6.94641 18.0124C6.11878 17.8002 5.12532 17.3581 4.41669 16.8866C4.00469 16.6124 4.00076 16.6082 4.03563 16.4774C4.05498 16.4046 4.07028 16.2025 4.06965 16.0282C4.06876 15.7848 4.04678 15.6699 3.97503 15.5329C3.83688 15.2691 3.66188 15.0882 3.40962 14.9485C3.20842 14.837 3.14934 14.8247 2.84675 14.8312C2.66081 14.8351 2.46112 14.8446 2.40302 14.8523C2.31207 14.8643 2.26364 14.8162 2.05517 14.5071C1.75922 14.0682 1.35779 13.2655 1.17826 12.7535C0.313399 10.287 0.657189 7.5464 2.10115 5.39651C3.6669 3.06535 6.20896 1.70381 8.99567 1.70381C10.6079 1.70381 12.0778 2.13101 13.4709 3.00433C13.9683 3.31626 14.1106 3.34436 14.2677 3.16177C14.3991 3.00894 14.391 2.82395 14.2465 2.68079C14.0739 2.50974 13.392 2.10003 12.8508 1.84224C11.9894 1.43186 10.9981 1.14786 10.011 1.0287C9.58592 0.977404 8.39375 0.980827 7.92102 1.03474ZM4.8789 5.23835C5.02296 5.33275 5.10769 5.5098 5.10769 5.71655C5.10769 6.08003 4.67959 6.33368 4.35203 6.16428C3.98031 5.97211 3.95732 5.42309 4.31277 5.22589C4.45071 5.14936 4.75321 5.15604 4.8789 5.23835ZM9.45158 9.31988C9.95029 9.64985 9.89502 10.4427 9.35509 10.704C9.09705 10.8289 8.77604 10.808 8.53845 10.6508C8.04831 10.3265 8.09628 9.53847 8.62242 9.27121C8.87252 9.14419 9.21656 9.16439 9.45158 9.31988ZM12.2483 11.627C12.5526 11.7902 12.6199 12.1648 12.3933 12.4341C11.9639 12.9442 11.1912 12.3387 11.5578 11.7794C11.7015 11.5601 12.0004 11.4941 12.2483 11.627ZM3.05848 15.582C3.1386 15.6155 3.24248 15.7058 3.28939 15.7827C3.5446 16.2013 3.16493 16.7067 2.69314 16.5764C2.31021 16.4707 2.18022 15.9956 2.45364 15.7012C2.62581 15.5158 2.8121 15.4791 3.05848 15.582Z" fill="white"/>
</svg>

<svg width="18" height="19" fill="none" xmlns="http://www.w3.org/2000/svg"><path fill-rule="evenodd" clip-rule="evenodd" d="M7.921 1.035C4.546 1.42 1.537 3.863.461 7.09.104 8.17-.03 9.098.007 10.276c.051 1.71.523 3.203 1.47 4.656l.294.45-.093.207c-.267.595.041 1.356.658 1.628.295.13.738.131.981.005l.174-.09.537.354a8.991 8.991 0 007.846 1.037c2.311-.772 4.267-2.528 5.303-4.76.794-1.71 1.024-3.698.647-5.594-.315-1.587-1.18-3.24-2.292-4.384-.23-.237-.274-.264-.426-.264-.167 0-.2.03-2.748 2.572l-2.58 2.573-.19-.09c-.152-.072-.27-.09-.591-.09-.347 0-.434.015-.643.113a1.648 1.648 0 00-.745.745c-.097.208-.113.295-.113.642 0 .346.016.434.113.642.144.307.438.601.745.745.208.097.296.113.643.113.346 0 .434-.016.642-.113.307-.144.601-.438.745-.745.098-.208.113-.295.113-.642 0-.321-.018-.44-.09-.597l-.09-.195.63-.629.633-.629.103.127c.15.184.427.762.506 1.057.095.353.128 1.087.064 1.426l-.052.274-.263.021c-.842.068-1.392.849-1.134 1.61l.084.247-.188.12c-.451.286-1.116.464-1.733.463C7.166 13.28 5.7 11.801 5.7 9.986A3.3 3.3 0 018.43 6.73c.36-.063 1.084-.034 1.39.055.644.187.601.182.728.088.29-.217.2-.515-.204-.677-.626-.252-1.71-.297-2.405-.1-1.377.39-2.436 1.457-2.84 2.858-.082.287-.096.432-.096 1.03 0 .6.014.746.097 1.036.4 1.403 1.494 2.492 2.873 2.859.494.131 1.311.152 1.826.045a4.009 4.009 0 001.331-.533l.28-.18.24.081c.424.144.893.024 1.23-.314.253-.252.36-.506.361-.86.002-.33-.054-.502-.255-.782l-.137-.19.067-.232c.05-.17.067-.417.067-.93 0-.589-.014-.749-.093-1.034-.113-.41-.407-1.021-.633-1.316l-.167-.216.63-.629.63-.628.105.126c.229.274.658.949.794 1.248.395.866.513 1.431.514 2.45.002 1.064-.13 1.658-.567 2.556-.769 1.582-2.251 2.733-4.028 3.128-.474.106-1.528.13-2.05.047a6.156 6.156 0 01-2.376-.935c-.499-.331-1.248-1.1-1.598-1.64a5.788 5.788 0 01-.205-5.977c.148-.265.183-.302.258-.275.048.018.239.032.425.032.294-.001.367-.017.563-.125.268-.148.407-.302.548-.608.114-.25.14-.648.054-.867-.06-.155-.054-.16.652-.511.926-.462 1.725-.637 2.747-.602a5.613 5.613 0 012.492.643c.249.128.506.232.572.232.173 0 .354-.224.32-.396-.039-.193-.123-.26-.676-.533-.913-.45-1.63-.629-2.666-.664-1.31-.044-2.407.23-3.512.873l-.433.253-.203-.09c-.59-.26-1.363.041-1.635.638-.13.284-.125.761.01 1.049l.1.215-.087.122c-.157.22-.514.975-.64 1.353-.253.755-.316 1.176-.315 2.082 0 .692.016.895.096 1.267.284 1.326.85 2.368 1.8 3.319.948.948 1.978 1.51 3.304 1.802.35.077.554.092 1.283.093.742.002.928-.011 1.297-.092 2.003-.437 3.64-1.698 4.534-3.495.474-.953.632-1.598.664-2.704.025-.851-.049-1.447-.263-2.134-.218-.7-.733-1.646-1.185-2.18l-.182-.214.63-.63c.384-.382.645-.612.667-.587 2.529 2.836 2.83 6.998.734 10.14a8.296 8.296 0 01-6.007 3.657c-.872.1-2.042.014-2.939-.216a9.012 9.012 0 01-2.53-1.125c-.411-.275-.415-.279-.38-.41a2.39 2.39 0 00.034-.449c-.001-.243-.023-.358-.095-.495a1.341 1.341 0 00-.565-.585c-.202-.111-.26-.123-.563-.117a6.36 6.36 0 00-.444.021c-.09.012-.14-.036-.348-.345a9.39 9.39 0 01-.877-1.753 8.301 8.301 0 01.923-7.357C3.667 3.065 6.21 1.704 8.996 1.704c1.612 0 3.082.427 4.475 1.3.497.312.64.34.797.158.131-.153.123-.338-.022-.481-.172-.171-.854-.581-1.395-.839a9.305 9.305 0 00-2.84-.813c-.425-.052-1.617-.048-2.09.006zM4.879 5.238c.144.095.229.272.229.479 0 .363-.428.617-.756.447-.372-.192-.395-.74-.04-.938.139-.077.441-.07.567.012zM9.452 9.32c.498.33.443 1.123-.097 1.384a.842.842 0 01-.817-.053c-.49-.325-.442-1.113.084-1.38a.866.866 0 01.83.049zm2.796 2.307c.305.163.372.538.145.807-.43.51-1.202-.095-.835-.655.143-.219.442-.285.69-.152zm-9.19 3.955c.08.034.184.124.231.2a.531.531 0 11-.835-.08c.172-.186.358-.223.604-.12z" fill="#fff"/></svg>
